X: 1
T: Humours Of Winnington, The
M: 6/8
L: 1/8
R: jig
K: Gmaj
G2B dBB|ecc dBB|G2B dBB|AGA BGE|
G2B dBB|ecc dBB|gfe dcB|AGA BGE:|
g2a bgg|aga bge|g2a bgg|gfe dBG|
g2a bgg|aga bge|gfe dcB|AGA BGE:|
